chat/static/images/icons/circle_lock.svg

<svg viewBox="0 0 100 100" version="1.1" width="100" height="100" xmlns="http://www.w3.org/2000/svg">
    <g transform="matrix(1.0039176,0,0,1.0039213,-8.7744706,85.392142)">
        <path d="m 58.5449,14.5508 c 27.2461,0 49.8051,-22.55861 49.8051,-49.8047 0,-27.1973 -22.6078,-49.8047 -49.8539,-49.8047 -27.1973,0 -49.75587,22.6074 -49.75587,49.8047 0,27.24609 22.60747,49.8047 49.80467,49.8047 z m 0,-8.3008 c -23.0469,0 -41.4551,-18.457 -41.4551,-41.5039 0,-22.9981 18.3594,-41.5039 41.4063,-41.5039 23.0469,0 41.5039,18.5058 41.5529,41.5039 C 100.098,-12.207 81.5918,6.25 58.5449,6.25 Z M 45.8496,-11.6699 h 25.3906 c 3.3692,0 4.9805,-1.6602 4.9805,-5.3223 v -19.5312 c 0,-3.2227 -1.2207,-4.8828 -3.8086,-5.2735 v -5.8105 c 0,-9.5215 -5.7617,-15.6738 -13.8672,-15.6738 -8.1054,0 -13.8672,6.1523 -13.8672,15.6738 v 5.8594 c -2.5879,0.3906 -3.8086,2.0507 -3.8086,5.2246 v 19.5312 c 0,3.6621 1.6114,5.3223 4.9805,5.3223 z m 3.9063,-36.4746 c 0,-6.1524 3.5156,-10.2051 8.789,-10.2051 5.2735,0 8.7891,4.0527 8.7891,10.2051 v 6.2988 H 49.7559 Z"/>
    </g>
</svg>

<svg viewBox="0 0 212.646728515625 159.98291015625" xmlns="http://www.w3.org/2000/svg">
    <g transform="matrix(1 0 0 1 47.778210449218705 115.221435546875)">
        <path d="M 58.5449 14.5508 C 85.791 14.5508 108.35 -8.00781 108.35 -35.2539 C 108.35 -62.4512 85.7422 -85.0586 58.4961 -85.0586 C 31.2988 -85.0586 8.74023 -62.4512 8.74023 -35.2539 C 8.74023 -8.00781 31.3477 14.5508 58.5449 14.5508 Z M 58.5449 6.25 C 35.498 6.25 17.0898 -12.207 17.0898 -35.2539 C 17.0898 -58.252 35.4492 -76.7578 58.4961 -76.7578 C 81.543 -76.7578 100 -58.252 100.049 -35.2539 C 100.098 -12.207 81.5918 6.25 58.5449 6.25 Z M 45.8496 -11.6699 L 71.2402 -11.6699 C 74.6094 -11.6699 76.2207 -13.3301 76.2207 -16.9922 L 76.2207 -36.5234 C 76.2207 -39.7461 75 -41.4062 72.4121 -41.7969 L 72.4121 -47.6074 C 72.4121 -57.1289 66.6504 -63.2812 58.5449 -63.2812 C 50.4395 -63.2812 44.6777 -57.1289 44.6777 -47.6074 L 44.6777 -41.748 C 42.0898 -41.3574 40.8691 -39.6973 40.8691 -36.5234 L 40.8691 -16.9922 C 40.8691 -13.3301 42.4805 -11.6699 45.8496 -11.6699 Z M 49.7559 -48.1445 C 49.7559 -54.2969 53.2715 -58.3496 58.5449 -58.3496 C 63.8184 -58.3496 67.334 -54.2969 67.334 -48.1445 L 67.334 -41.8457 L 49.7559 -41.8457 Z" />
    </g>
</svg>
